X: 4
T: The Rainy Day
R: reel
M: 4/4
L: 1/8
K: Ador
AG |: EAAG ~A3 B | cded cBAc | BG ~G2 dG ~G2 | (3Bcd gd edBG |
EAAG ~A3 B | c2AB cdef | ~g2 fa gedB | GBdB BA A2 :|
eaag eaag | edef g2 eg | dggg a2ga | bgab gedg |
eaag eaag | edef g2 gf | gedB GABd | (3efg dB BA A2 :|

